X:31
T: HOCH VOM DACHSTEIN AN WO DER AAR NOCH HAUST
N: B0036
O: Europa, Mitteleuropa, Oesterreich, Steiermark
R: politisch, national, Vaterlands - Lied
M: 3/4
L: 1/16
K: F
F2G2 | A2C2A4G2F2 | G2D2G4
B2d2 | c2G2c2d2G2B2 | A8
F2G2 | A2C2A4G2F2 | E2G2e4
d2c2 | =B2c2d2e2f2B2 | c8
c2^c2 | d2B2f4e2d2 | d3cA4
c2^c2 | e2d2c2d2B2G2 | A8
c2^c2 | d2B2f4e2d2 | =B2c2a4
g2f2 | e2c2d2c2B2E2 | F4z4

